X: 2010
T: Quiet and Snug
P: Alex. McGlashan's Farewell
C:Alexander McGlashan
R:Strathspey (8x32)
B:RSCDS 20-10
Z:Anselm Lingnau <anselm@strathspey.org>
M:C
L:1/8
K:G
D|"G"[GD]>B "Bm"d>A "G"[d/D/]B/G D>G|"C"EG"G"Dd "Am"[c/E/]B/A "D"[c/F/]B/A|\
  "G"[GD]>B "Bm"d>A "G"[d/D/]B/G D>G|"Am"EA"D"[FC]D "G"[G/B,/]G/G z D|
  "G"[GD]>B "Bm"d>A "G"[d/D/]B/G D>G|"C"EG"G"Dd "Am"[c/E/]B/A "D"[c/F/]B/A|\
  "G"[GD]>B "Bm"d>A "G"[d/D/]B/G D>G|"Am"EA"D"[FC]D "G"[G/B,/]G/G z||
d|"G"d<B [gG]<f "C"[eG]dcB|"Am"Aa"A7"[Aa]g "D"[fA]>e[dA]>c|\
  "G"[BG]dgd "C"[eG]g"G"[dG]g|"C"[cE]e"D7"[dD]c "G"[B/D/]A/G z d|
  "G"d<B [gG]<f "C"[eG]dcB|"Am"Aa"A7"[Aa]g "D"[fA]>e[dA]>c|\
  "G"[BG]dgd "C"[eG]g"G"[dG]g|"Am"[eG]a"D7"[fA]d "G"[g2G2] z|]
%%center Book20/2010-Quiet_and_Snug-AL.abc

%%sep 1 1 500
%%sep 1 1 500
